X:1
T:Parry's -- Hornpipe
R:hornpipe
B:Cole's 1000 Fiddle Tunes
M:2/4
L:1/16
K:Bb
vbf|d2d2 decA|B2B2B2 (de)|f=efd gf_ed|cdec BAGF|
d2d2 dfeg|f2f2f2 (ba)|gfed cBAc|B2B2B2:|
|:(ucd)|eded .e2(cd)|edcB BAGF|f=efe .f2(ga)|bagf _edcB|
gfed egbg|fedc dfbg|fbag fedc|B2B2B2:|
